X: 13
T: Pour estre ou nombre des loyaulx
N: Derived from Com3031-Pour_estre_ou_nombre_des_loyaulx.krn
C: Loyset Comp\`ere
%%abc-version 2.0
%%abcx-abcm2ps-target-version 5.9.1 (29 Sep 2008)
%%abc-creator hum2abc beta
%%abcx-conversion-date 2019/02/16 20:28:09
%%abc-edited-by Jesse Rodin
%%abc-edited-by Megan K. Eagen 2013/12/01
%%abcx-initial-encoding-date 2013/12/01/
%%humdrum-veritas 560927603
%%humdrum-veritas-data 147569329
%%linebreak <none>
%%barnumbers 0
L: 1/4
M: 3/1
Q: 1/2=120
V: 1 clef=treble
V: 2 clef=treble-8
V: 3 clef=bass
K: F
[V:1] z12 | 
[V:2] G4G4F4 | 
[V:3] G,4B,4A,4 | 
[V:1] D4D4C4 | 
[V:2] B8c4 | 
[V:3] G,6D,2_E,3D, | 
[V:1] F8F4 | 
[V:2] d8d4 | 
[V:3] B,,12 | 
[V:1] G3AB2A3GFE | 
[V:2] c4B2c3BAG | 
[V:3] z4z4z2G,,2 | 
[V:1] D3ED2G4^F2 | 
[V:2] F2G2B2c2A4 | 
[V:3] B,,3C,D,2C,2D,4 | 
[V:1] G4z4B4 | 
[V:2] G8G4 | 
[V:3] _E,3D,C,2B,,A,,G,,4 | 
[V:1] A3Bc2d4c2 | 
[V:2] F8F4 | 
[V:3] D,4z2D,3E,F,E,/F,/ | 
[V:1] B2AGF2B4A2 | 
[V:2] B8c4 | 
[V:3] G,3F,D,2G,2F,4 | 
[V:1] G2c3BB4A2 | 
[V:2] B2A2B2d2c4 | 
[V:3] z2F,2G,2D,2E,2F,2 | 
[V:1] B4z4F4 | 
[V:2] B8z4 | 
[V:3] B,,4B,,C,D,_E,D,2B,,2 | 
[V:1] G4G2A4A2 | 
[V:2] B4c4c2d2- | 
[V:3] z2_E,4F,3E,D,C, | 
[V:1] B2B2A6GF | 
[V:2] d2d2d2d2c4- | 
[V:3] B,,3C,D,3E,F,3G, | 
[V:1] E2G3FF4E2 | 
[V:2] c2B3AGFG4 | 
[V:3] A,2B,2F,2E,D,C,4 | 
[V:1] F4z4F4 | 
[V:2] F8z4 | 
[V:3] z2F,3E,D,3C,/B,,/A,,2 | 
[V:1] G4A4G2FE | 
[V:2] z4F4G3A | 
[V:3] G,,4D,4z2G,2- | 
[V:1] D2A3GG4^F2 | 
[V:2] B2c3BAGA4 | 
[V:3] G,2F,3G,E,2D,4 | 
[V:1] G4z2G2G4 | 
[V:2] G8z4 | 
[V:3] G,,3A,,B,,2C,3D,_E,2- | 
[V:1] G4F2EDC2F2- | 
[V:2] B4B4A4 | 
[V:3] E,D,_E,D,B,,4F,4 | 
[V:1] F2E3DD4^C2 | 
[V:2] G4F2EDE4 | 
[V:3] B,,2C,2D,E,F,E,/F,/G,4 | 
[V:1] D4z4A4 | 
[V:2] D8z4 | 
[V:3] z2G,,3A,,B,,C,D,E,F,2 | 
[V:1] B4c4B2AG | 
[V:2] z4A4B3c | 
[V:3] _E,D,2C,/B,,/A,,4G,,2B,,2- | 
[V:1] F2B4A2B2A2- | 
[V:2] d2B2c4B2c2- | 
[V:3] B,,C,D,2E,2F,2G,2F,E,/D,/ | 
[V:1] AGFED4z2D2 | 
[V:2] cBAGF3GA2B2- | 
[V:3] C,2D,3C,B,,A,,/G,,/F,,2B,,2- | 
[V:1] F3GA2B3AGF | 
[V:2] Bcdedcd3cBA | 
[V:3] B,,A,,B,,2F,,2B,,3C,D,2 | 
[V:1] G2A3GG4^F2 | 
[V:2] B2c3GB2A4 | 
[V:3] B,,2F,3E,G,2D,4 | 
[V:1] G12 |]  
[V:2] G12 |]  
[V:3] G,,12 |]  



